X:2647
T:Care thou Canker
N:A Favourite Catch
M:C
K:D
a3b a2d'2| a3g f2e2| d3f f2e2| d3g g2f2|\
a3b abc'd'| a3g g2f2| d3f fege| d2c2 {c}d4||
f3g f2f2| f3e e2d2| A3A B2B2| c3e e2d2|\
f3g f2f2| f3e e2d2| A2A2 B2ge| d2c2 {c}d4||
d3d d2d2| A2A2 B4| F3F G2G2| A2A2 D4|\
d3d d2d2| A2A2 B4| F3F G2G2| A2A2 D4|]


